!!!SOCIAL_FUNCTION:	deer dance songs
!!!PDT:	1932
!!!OTL: No_80_Song_of_the_Nighthawk_(b).krn
!!!REG: Southwest
!!!LANG: Non-Tone
!!!LING_GROUP: Yuman-Cochimi
**kern	**kern
*staff2	*staff1
=1-	=1-
*clefF4	*clefF4
*k[f#]	*k[f#]
*M2/4	*M2/4
2r	8r
.	8G\
.	4E\
=2!|:	=2!|:
2r	4B\
.	4B\
=3	=3
2r	4B\
.	4A\
=4	=4
2r	4E\
.	8.E\L
.	16G\Jk
=5	=5
2r	8.G\L
.	[16E\Jk
.	8.E\L]
.	16D\Jk
=6	=6
2r	8E\L
.	8D\J
.	4E\
=7||	=7||
*M3/4	*M3/4
2.r	2BB/
.	8r
.	8D\
=8	=8
2.r	4BB/
.	4E\
.	4E\
=9||	=9||
*M2/4	*M2/4
2r	2E\
=10||	=10||
*M3/4	*M3/4
2.r	2D\
.	8r
.	8D\
=11	=11
2.r	4BB/
.	4E\
.	4E\
=12||	=12||
*M2/4	*M2/4
2r	2E\
=13||	=13||
*M3/4	*M3/4
2.r	4D\
.	4r
.	8.D\L
.	16E\Jk
=14||	=14||
*M2/4	*M2/4
2r	8.E\L
.	16D\Jk
.	8.D\L
.	16D\Jk
=15	=15
2r	8E\L
.	8D\J
.	4E\
=16	=16
2r	2E\
==:|!	==:|!
*-	*-
